X:1
T:Saliga
T:Alice Tegnér (1864-1943)
T:Saliga
T:Luk 11:28
%%score 1 [ ( 2 3 ) ( 4 5 ) ] { ( 6 8 ) | ( 7 9 ) }
L:1/8
Q:1/4=75
M:4/4
K:D
V:1 treble nm="MusicXML Part"
V:2 treble nm="Kör" snm="Kör"
V:3 treble 
V:4 bass nm="MusicXML Part"
V:5 bass 
V:6 treble nm="Orgel"
V:8 treble 
V:7 bass 
V:9 bass 
V:1
"^Adagio"!mf!!<(! f4!<)! e2!>(! d2!>)! | A3 B A4 | z2 F2 e2!>(! dG!>)! | (F8 | %4
w: Sa- li- ga|ä- ro de|som hö- ra Guds|ord|
 E2)!<(! E2!<)! B3!>(! A!>)! | A8- | A2!p! G2 E3 F | F6 z2 || z8 | z8 | z8 | z8 | z8 | z8 | z8 | %15
w: * och göm- ma|det,|* och göm- ma|det,||||||||
 z8 | z8 | z8 | z8 | z8 |] %20
w: |||||
V:2
 z8 | z8 | z8 | z8 | z8 | z8 | z8 | z8 ||!<(!!>(! f4!>)! e2 d2!<)! | A3 B A4- | %10
w: ||||||||||
w: |||||||||ä- ro de|
 A2!<(! G2 e2!<)! d!>(!G!>)! | F8 | E2 E2 B3 A | A8- | A2 G2 E3 D | D6 z2 |!mf! [FA]6 [FA]2 | %17
w: |||||||
w: ||* * göm- ma|det,||||
 [FA]6 z2 | z8 | z8 |] %20
w: |||
w: |||
V:3
 x8 | x8 | x8 | x8 | x8 | x8 | x8 | x8 || F4 G2 A2 | E6!>(! E2!>)! | D2 D2 G2 GE | D8- | D2 E2 E4 | %13
w: ||||||||Sa- li- ga|ä- ro|de som hö- ra Guds|ord,|* och göm-|
 D2 D2 C2 =C2 | B,2 E2 C3 A, | A,6 x2 | D6 D2 | D6 x2 | x6 x2 | x8 |] %20
w: ma och göm- ma|det, och göm- ma|det.|Sa- li-|ga|||
V:4
 z8 | z8 | z8 | z8 | z8 | z8 | z8 | z8 ||!f! A,4 C2 D2 | E6 C2 | D2 D2 D4 | D2 A,2 E2 DA, | %12
w: ||||||||||* * hö-|ra som hö- ra Guds|
!p! B,4 C4 | A,2 (A,4 D2) | D2!pp! B,2 G,3 F, | F,6 z2 | z8 | z8!pp! | [A,D]6 [A,D]2 | [A,D]6 z2 |] %20
w: ord och|göm- ma *|det, * * *||||||
V:5
 x8 | x8 | x8 | x8 | x8 | x8 | x8 | x8 || D,4 E,2 F,2 | C,6 C,2 | B,,2 B,,2 _B,,4 | A,,8 | %12
w: ||||||||||||
w: ||||||||||* * hö-|ra|
 ^G,,2 G,,2 =G,,4 | F,,8 | G,,2 G,,2 A,,3 D, | D,6 x2 | x8 | x8 | [D,F,]6 [D,F,]2 | [D,F,]6 x2 |] %20
w: ||||||||
w: or- det och|göm-|ma och göm- ma||||||
V:6
 [A,DA-]8 |"^Instrument change" [A,EA-]8 |"^Instrument change" A2 G6 | %3
"^Instrument change" [A,DF]8 |"^Instrument change" [B,DE]4"^Instrument change" [CE]4 | %5
"^Instrument change" F8-"^Instrument change" | %6
"^Instrument change" [B,F]2"^Instrument change" [B,EG]2 [CE]3 [CF] | %7
"^Instrument change" [A,DF]8"^Instrument change" || z8 | z8 | z8 | z8 | z8 | z8 | z8 | %15
"^Instrument change" z2"^Instrument change" [DF]2 [FA]2 [Ad]2 |"^Instrument change" f4 e2 d2 | %17
"^Instrument change" A3"^Instrument change" B A4 | %18
"^Instrument change" F4"^Instrument change" E2 D2 | %19
"^Instrument change" A,3"^Instrument change" B, A,4 |] %20
V:7
!p! [D,F,]8 | [C,E,]8 | [B,,D,]8 | [A,,D,]2 A,,2 E,2 D,A,, | ^G,,4 =G,,4 | z2 D,6 | %6
!pp! z2 E,2 G,2 A,2 |!<(! x8!<)! || z8 | z8 | z8 | z8 | z8 | z8 | z8 | z2 A,2 D2 F2 | [DF]8- | %17
 [DF]8 | [D,,A,,D,F,A,]8- | [D,,A,,D,F,A,]8 |] %20
V:8
 x8 | x8 | [G,D]8 | x8 | x4 B,3 A, | [A,D]4 C2 =C2 | x8 | x8 || x8 | x8 | x8 | x8 | x8 | x8 | x8 | %15
 x8 | x8 | x8 | x8 | x8 |] %20
V:9
 x8 | x8 | x8 | x8 | x8 | F,,8 | G,,4 A,,4 | D,,2 A,,2 D,2 F,2 || x8 | x8 | x8 | x8 | x8 | x8 | %14
 x8 | x2 D,6 | x8 | x8 | x8 | x8 |] %20

